X:5894
T:Scottish à Servant
O:england
C:Repertori 30
M:2/4
L:1/16
K:C
efed cGce|gfef d4|GABc d2de|fedf e2c2|\
efed cGce|
gfef d4|GABc d2de|fedB c4:|\
|:e2g2 A2Bc|dcBA G4|GABc d2de|
fedf e2c2|\
e2g2 A2Bc|dcBA G4|GABc d2de|fedB c4:|


